common/src/main/resources/files/plugins/datagrip/snowflakeFileType.svg

<!--
  - The MIT License (MIT)
  -
  - Copyright (c) 2015-2024 Elior "Mallowigi" Boukhobza
  -
  - Permission is hereby granted, free of charge, to any person obtaining a copy
  - of this software and associated documentation files (the "Software"), to deal
  - in the Software without restriction, including without limitation the rights
  - to use, copy, modify, merge, publish, distribute, sublicense, and/or sell
  - copies of the Software, and to permit persons to whom the Software is
  - furnished to do so, subject to the following conditions:
  -
  - The above copyright notice and this permission notice shall be included in all
  - copies or substantial portions of the Software.
  -
  - THE SOFTWARE IS PROVIDED "AS IS", WITHOUT WARRANTY OF ANY KIND, EXPRESS OR
  - IMPLIED, INCLUDING BUT NOT LIMITED TO THE WARRANTIES OF MERCHANTABILITY,
  - FITNESS FOR A PARTICULAR PURPOSE AND NONINFRINGEMENT. IN NO EVENT SHALL THE
  - AUTHORS OR COPYRIGHT HOLDERS BE LIABLE FOR ANY CLAIM, DAMAGES OR OTHER
  - LIABILITY, WHETHER IN AN ACTION OF CONTRACT, TORT OR OTHERWISE, ARISING FROM,
  - OUT OF OR IN CONNECTION WITH THE SOFTWARE OR THE USE OR OTHER DEALINGS IN THE
  - SOFTWARE.
  -->
<svg data-big="true" width="16px" height="16px" fill="#40B6E0" viewBox="0 0 16 16"
     xmlns="http://www.w3.org/2000/svg">
  <path
    d="M6.00006 1C5.44777 1 5.00006 1.44772 5.00006 2V3.07482L4.12127 2.45949C3.66886 2.14271 3.04532 2.25266 2.72854 2.70506C2.41176 3.15747 2.52171 3.78101 2.97412 4.09779L5.36034 5.76865C5.53372 5.9131 5.75674 6 6.00006 6C6.05156 6 6.10215 5.99611 6.15156 5.9886C6.41383 5.94973 6.66022 5.80728 6.8243 5.57295C6.96755 5.36837 7.02354 5.12879 7.00006 4.89842V2C7.00006 1.44772 6.55234 1 6.00006 1Z"
  />
  <path
    d="M9.99988 1C9.44759 1 8.99988 1.44772 8.99988 2V5C8.99988 5.55228 9.44759 6 9.99988 6C10.2304 6 10.4427 5.92199 10.6119 5.79093L13.0334 4.09532C13.4859 3.77854 13.5958 3.155 13.279 2.70259C12.9622 2.25019 12.3387 2.14024 11.8863 2.45701L10.9999 3.07769V2C10.9999 1.44772 10.5522 1 9.99988 1Z"
  />
  <path
    d="M1.28013 7.48831C0.79249 7.22903 0.607371 6.62353 0.866653 6.13589C1.12593 5.64825 1.73143 5.46313 2.21907 5.72241L4.77794 7.08299C4.9925 7.17039 5.17786 7.33234 5.29129 7.55496C5.42088 7.80929 5.43122 8.09302 5.34304 8.34244C5.32637 8.39017 5.30586 8.43723 5.28139 8.48325C5.16711 8.69818 4.98557 8.85434 4.7765 8.93958L2.18125 10.2619C1.68916 10.5127 1.08699 10.317 0.836257 9.82491C0.585525 9.33283 0.781184 8.73065 1.27327 8.47992L2.22911 7.99289L1.28013 7.48831Z"
  />
  <path
    d="M15.1333 6.13588C15.3926 6.62351 15.2075 7.22901 14.7199 7.48829L13.7709 7.99288L14.7267 8.4799C15.2188 8.73063 15.4145 9.33281 15.1637 9.8249C14.913 10.317 14.3108 10.5126 13.8187 10.2619L11.2235 8.93957C11.0144 8.85433 10.8329 8.69817 10.7186 8.48323C10.6941 8.43722 10.6736 8.39015 10.6569 8.34243C10.5688 8.09301 10.5791 7.80927 10.7087 7.55495C10.8221 7.33232 11.0075 7.17037 11.222 7.08297L13.7809 5.7224C14.2685 5.46312 14.874 5.64824 15.1333 6.13588Z"
  />
  <path
    d="M4.11553 13.5419L4.99999 12.9226V14C4.99999 14.5523 5.44771 15 5.99999 15C6.55228 15 6.99999 14.5523 6.99999 14V11C6.99999 10.4477 6.55228 10 5.99999 10C5.76793 10 5.55434 10.0791 5.38466 10.2117L2.96838 11.9036C2.51597 12.2204 2.40603 12.8439 2.7228 13.2963C3.03958 13.7487 3.66313 13.8587 4.11553 13.5419Z"
  />
  <path
    d="M10 10C9.44772 10 9 10.4477 9 11V14C9 14.5523 9.44772 15 10 15C10.5523 15 11 14.5523 11 14V12.9168L11.8909 13.5406C12.3433 13.8573 12.9668 13.7474 13.2836 13.295C13.6004 12.8426 13.4904 12.219 13.038 11.9022L10.5806 10.1815C10.4286 10.0751 10.2573 10.0168 10.0848 10.0035C10.0568 10.0012 10.0285 10 10 10Z"
  />
  <path
    d="M8.35355 6.35355C8.15829 6.15829 7.84171 6.15829 7.64645 6.35355L6.35355 7.64645C6.15829 7.84171 6.15829 8.15829 6.35355 8.35355L7.64645 9.64645C7.84171 9.84171 8.15829 9.84171 8.35355 9.64645L9.64645 8.35355C9.84171 8.15829 9.84171 7.84171 9.64645 7.64645L8.35355 6.35355Z"
  />
</svg>

<svg xmlns="http://www.w3.org/2000/svg" width="16" height="16" fill="#40B6E0" data-big="true"><path d="M6 1a1 1 0 0 0-1 1v1.075l-.879-.616a1 1 0 1 0-1.147 1.639l2.386 1.67a1 1 0 0 0 .792.22A.997.997 0 0 0 7 4.899V2a1 1 0 0 0-1-1M10 1a1 1 0 0 0-1 1v3a1 1 0 0 0 1.612.79l2.421-1.695a1 1 0 1 0-1.147-1.638l-.886.62V2a1 1 0 0 0-1-1M1.28 7.488a1 1 0 0 1 .94-1.766l2.558 1.361a.996.996 0 0 1 .565 1.26 1 1 0 0 1-.566.597L2.18 10.262a1 1 0 1 1-.908-1.782l.956-.487zM15.133 6.136a1 1 0 0 1-.413 1.352l-.95.505.957.487a1 1 0 1 1-.908 1.782L11.223 8.94a1 1 0 0 1-.566-.598.997.997 0 0 1 .565-1.259l2.559-1.36a1 1 0 0 1 1.352.413M4.116 13.542l.884-.62V14a1 1 0 1 0 2 0v-3a1 1 0 0 0-1.615-.788l-2.417 1.692a1 1 0 1 0 1.148 1.638M10 10a1 1 0 0 0-1 1v3a1 1 0 1 0 2 0v-1.083l.89.624a1 1 0 0 0 1.148-1.639l-2.457-1.72A1 1 0 0 0 10 10M8.354 6.354a.5.5 0 0 0-.708 0L6.354 7.646a.5.5 0 0 0 0 .708l1.292 1.292a.5.5 0 0 0 .708 0l1.292-1.292a.5.5 0 0 0 0-.708z"/></svg>
